X: 20912
T: Woo'd and Married and a'
%R: slip-jig
B: James Oswald "The Caledonian Pocket Companion" v.2 p.91 #2
Z: 2019 John Chambers <jc:trillian.mit.edu>
M: 9/8
L: 1/8
K: G	% and Em
d |\
B2B BAB GAB | d2d ded d2e | dBB BAB GAB | e2e ef^d e2_d | B2g gag g2B |
d2d ded d2e | d2B BAB GFG | E2e ef^d e2 :: g | dBB cAA BGG | (B/c/dd) dBd efg |
dcB ABG FGE | gfe ef^d e2g | def gba gba | gdd dBg d2e | (d2B) (c2A) BGF | E2e ef^d e2 :|


